assets/01_base/Base_53.svg

<svg width="500" height="500" viewBox="0 0 500 500" fill="none" xmlns="http://www.w3.org/2000/svg">
<g clip-path="url(#clip0_70_642)">
<path d="M154.765 282.529C225.327 282.529 282.529 225.327 282.529 154.765C282.529 84.2022 225.327 27 154.765 27C84.2022 27 27 84.2022 27 154.765C27 225.327 84.2022 282.529 154.765 282.529Z" fill="#1F69AF"/>
<path d="M345.222 472.986C415.784 472.986 472.986 415.784 472.986 345.222C472.986 274.659 415.784 217.457 345.222 217.457C274.659 217.457 217.457 274.659 217.457 345.222C217.457 415.784 274.659 472.986 345.222 472.986Z" fill="#1F69AF"/>
<path d="M249.999 431.495C350.236 431.495 431.494 350.237 431.494 250C431.494 149.763 350.236 68.5048 249.999 68.5048C149.762 68.5048 68.5039 149.763 68.5039 250C68.5039 350.237 149.762 431.495 249.999 431.495Z" fill="#1F69AF"/>
<path d="M169.67 277.443C229.192 277.443 277.444 229.191 277.444 169.669C277.444 110.148 229.192 61.8956 169.67 61.8956C110.148 61.8956 61.8965 110.148 61.8965 169.669C61.8965 229.191 110.148 277.443 169.67 277.443Z" fill="#319ED7"/>
<path d="M330.332 438.104C389.854 438.104 438.106 389.852 438.106 330.331C438.106 270.809 389.854 222.557 330.332 222.557C270.811 222.557 222.559 270.809 222.559 330.331C222.559 389.852 270.811 438.104 330.332 438.104Z" fill="#319ED7"/>
<path d="M250 403.1C334.555 403.1 403.1 334.555 403.1 250C403.1 165.445 334.555 96.9 250 96.9C165.446 96.9 96.9004 165.445 96.9004 250C96.9004 334.555 165.446 403.1 250 403.1Z" fill="#319ED7"/>
<path d="M70.5449 252.013C70.5449 225.073 86.4968 197.942 110.214 184.493C130.871 172.784 154.003 173.341 173.681 186.029C201.913 204.225 203.572 231.627 192.707 250.707C180.984 271.283 157.118 280.095 137.195 271.215L136.909 271.079C126.166 265.952 118.645 257.588 116.66 246.668C114.81 236.482 120.032 226.324 129.878 221.061L145.137 234.647C141.302 238.114 142.539 245.58 150.862 249.143C159.878 252.394 167.045 246.519 171.111 239.379C177.068 228.935 171.696 216.709 158.749 208.359C143.994 198.84 130.885 202.525 122.48 207.298C107.426 215.839 96.9002 233.776 96.9002 250.938L70.5449 252.026V252.013Z" fill="#1F69AF"/>
</g>
<defs>
<clipPath id="clip0_70_642">
<rect width="446" height="446" fill="white" transform="translate(27 27)"/>
</clipPath>
</defs>
</svg>

<svg xmlns="http://www.w3.org/2000/svg" width="500" height="500" fill="none" viewBox="0 0 500 500"><g clip-path="url(#Base_53_svg_clip0_70_642)"><path fill="#1f69af" d="M154.765 282.529c70.562 0 127.764-57.202 127.764-127.764C282.529 84.202 225.327 27 154.765 27 84.202 27 27 84.202 27 154.765c0 70.562 57.202 127.764 127.765 127.764"/><path fill="#1f69af" d="M345.222 472.986c70.562 0 127.764-57.202 127.764-127.764 0-70.563-57.202-127.765-127.764-127.765-70.563 0-127.765 57.202-127.765 127.765 0 70.562 57.202 127.764 127.765 127.764"/><path fill="#1f69af" d="M249.999 431.495c100.237 0 181.495-81.258 181.495-181.495S350.236 68.505 249.999 68.505 68.504 149.763 68.504 250s81.258 181.495 181.495 181.495"/><path fill="#319ed7" d="M169.67 277.443c59.522 0 107.774-48.252 107.774-107.774S229.192 61.896 169.67 61.896 61.897 110.148 61.897 169.669c0 59.522 48.251 107.774 107.773 107.774"/><path fill="#319ed7" d="M330.332 438.104c59.522 0 107.774-48.252 107.774-107.773 0-59.522-48.252-107.774-107.774-107.774s-107.773 48.252-107.773 107.774 48.252 107.773 107.773 107.773"/><path fill="#319ed7" d="M250 403.1c84.555 0 153.1-68.545 153.1-153.1S334.555 96.9 250 96.9 96.9 165.445 96.9 250 165.446 403.1 250 403.1"/><path fill="#1f69af" d="M70.545 252.013c0-26.94 15.952-54.071 39.669-67.52 20.657-11.709 43.789-11.152 63.467 1.536 28.232 18.196 29.891 45.598 19.026 64.678-11.723 20.576-35.589 29.388-55.512 20.508l-.286-.136c-10.743-5.127-18.264-13.491-20.249-24.411-1.85-10.186 3.372-20.344 13.218-25.607l15.259 13.586c-3.835 3.467-2.598 10.933 5.725 14.496 9.016 3.251 16.183-2.624 20.249-9.764 5.957-10.444.585-22.67-12.362-31.02-14.755-9.519-27.864-5.834-36.269-1.061-15.054 8.541-25.58 26.478-25.58 43.64l-26.355 1.088z"/></g><defs><clipPath id="Base_53_svg_clip0_70_642"><rect width="446" height="446" fill="#fff" transform="translate(27 27)"/></clipPath></defs></svg>
